X: 78
T:Gan Ainm (Fintan McManus')
M:4/4
L:1/8
C:Trad
R:Reel
Z:abc: Dwight Muller
K:G
|:EA ~A2 ABcA| EAFA GEED|EA ~A2 ABcd|egdB BAAG:|
|:ABcd eAAe|gedc BGGB|ABcd eaaf|gedc BA A2:|
|:egdB A2 eg|
M:3/4 dB GA (3Bcd|
M:4/4 eBdB Aa2f|gedB BAA2:||
